;Header Start

;FLAVOR:Marlin
;TIME:6666
;Filament used: 0m
;Layer height: 0.15


;header_type: 3dp
;thumbnail: data:image/png;base64,iVBORw0KGgoAAAANSUhEUgAAASwAAACWCAYAAABkW7XSAAAgAElEQVR4Xu2dC7RVVbnHJ5aGAiogb3mJAiYvRQXfNbx56yJpapaEdu+oJMtudRuNrobX4U0E1EGlOS5iI8tQkuEDJQUzQ+Xpi+SA+AJE8AGCpigQ9OCO3zx+23kma+313Ovsdc63xthj77P3WnPN9Z9r/c73ffObc7bZvn3nHqObKqAKqAIlUKCNAqsEraRVVAVUAauAAktvBFVAFSiNAgqs0jSVVlQVUAUUWHoPqAKqQGkUUGCVpqm0oqqAKqDA0ntAFVAFSqOAAqs0TaUVVQVUAQWW3gOqgCpQGgUUWKVpKq2oKqAKKLD0HlAFVIHSKKDAKk1TaUVVAVVAgaX3gCqgCpRGAQVWaZpKK6oKqAIKLL0HVAFVoDQKKLBK01RaUVVAFVBg6T2gCqgCpVFAgVWaptKKqgKqgAJL7wFVQBUojQIKrNI0lVZUFVAFFFh6D6gCqkBpFFBglaaptKKqgCqgwNJ7QBVQBUqjgAKrNE2lFVUFVAEFViu9BzZu3Gj22afNh1cv73HFaFzKcs+ePWbPHmN69+4d90DdTxXIpIACK5N85T3429++xOy3335m3333NR//+MdNmzZtzD777GM+9rGP2Yvib3drhNMe849//MP885//tO+8/v73v5vdu3ebSZMmm44dO5ZXEK15KRRQYJWimfKv5DXXXG2BBawAlbwEVC6wAJVYVMCKv11oAaxx48ab/v37519RLVEVcBRQYLXS22HSpJ+YT3ziEwqsVtr+Zb1sBVZZWy5jvW+66Uazc+dOBVZGHfXwYhVQYBWrd92cTYBFzIpXXJdQ3EF1CeumKVtVRRRYraq5P7rYX/wCC2uHtbCigCXxKwm8AysFViu9cZr5shVYzdwAzXX6119/zWzcuMGCBxCJhcXfBNyDgu5uXekd5Li2bdua/fc/wAwZMrS5LkXP24oUUGC1osb2L3X16tVmwYJHbGoDL7G0woAlVhXvAGvXrl02cH/xxd9sxSrqpRepgAKrSLXr7FwNDSvMww//oZKLhZUl+VhUVawscQX9+BXQ6tatu/nKV8bX2ZVpdVqqAgqsltqyMa7r1VdfNXfdNTs1sP72t7+Z7t0B1oUxzqa7qALZFVBgZdewtCW899675pZbZtgEUuktFHfQdQvDLCyAhYU1frwCq7Q3QckqrsAqWYPlXd3rrptayXgHWnGBhTsoLqECK+9W0fLCFFBgtfJ7IyuwBg0abM48c2wrV1EvvygFFFhFKV2n57n55v8zf/3rXyv5WEktrIEDB5mxYz9fp1en1WppCiiwWlqLJrye6dMB1k4beHez3avFsGSmBmJYWFgKrISi6+6pFVBgpZauZRw4a9YdZvPmTU0y3l0ri6v0g+4usEaNGm1OOeXUwsXYsGGDPeeGDa9++N74Nz2f/NanTx/Tt29fM27cVwqvm56wdgoosGqnbSlKfvDBB8xLL72YGljHHz/KnHrqaZmuNQo+jWDasBec4pwUcAGtyy67PM7uuk+dK6DAqvMGqnX1Hnjg9xZYQZnuYYmjroXlA6uW8MmiBdfyox/9t01yBWK6lVMBBVY52y23Wi9atNA89dSTqYDFxH3Lly83q1atauKW5Va5HAuSLH5SNwYMGGBuuOFGA2x1K5cCCqxytVcutcUKAlQS82nbtnEiP5l9NG4MC2DNmTOnAqxcKlelEKDD5k6JQ51l5lQZE9muXTv7HeMceW/fvr0dpC3fcczBB3c0EydeUesqa/k5K6DAylnQei7utdc2mpkzZ5rJk6+pVHPo0KHmnHPO2Wt4jttL+M4779jAO+9vv/22Wbt2beVvgtxJNheGgEdAyWeAA2R4BzB85nXAAQdUgMNnAZHMR8/f7O/DzB0XyW8yaBvQfvDBB+bKK69KUnXdtw4UUGDVQSMUUQWsqu9851Lz6KMLmpzuoIMOstntLCAhMau//OUvdh95D6qfO1Datc74vP/++1fgI3/zHVABOGLpCJD4jXPLECGx9CTzXiyrrDrJbBPMMrFjxw5zxRVXZi1Sjy9YAQVWwYI3x+mWLFlsJkyYUOllkzqIBSKr5fDuWi18BiK8BDi8u5aPAElW4OFdynMXuPCnrGkOHQRYWFgAa+LE/2mOaug5MyigwMogXhkOnT37TvPTn06zEMHCEQhh6Uisx43vCLCAjfQcumDzl/8qgwZSRwEWCa8A61vfulSXJitTAzLl0fbtOxvXcNKtRSowf/68Sp4VFyjuVZnBk7ahiMPJoG2g9fWvX6zASitmMx2nwGom4Ys67bJlS82f/7zc9qzJ+oJFnbvW5xHourEugCyuqLiz4upiMWJVtmvX3nTs2Mn06NGj1lXU8nNWQIGVs6D1Vtzq1c/ZQLs81PUGLYltuUF8gY64pBKMJ3bGdUhPoqxYHZT06i72Kp/fffddc9RRQ2xKg27lVECBVc52i13r9957z8yceVtlOfq8geWuFO33HEraAu9uUN7NneJ7ypDVe7gwgRgxJzYy6yUlgc+4dbxzLcw0Ib8TTHd/k4x8cQUB3Ze/PC62drpj/SmgwKq/Nsm9Rjfe+PPKbAxBwHKhw2exxmQGB4EJwXmxcARC7t+yiIUbKxPoABI+EzuSdwGK+5vEmGRVHnmXgLlYSzIgm3PFhTCzo37+82flrq8WWJwCCqzitG62Mz322AKDpSXTx0hPoUDHnSLZnSoZSHCMQAfYAAeBDhaNWD6Ahe9da0hA5K62I2sayvJiIkpc6ISJyPFRHQnt23cwF1ygFlaz3Yg5nFiBlYOIZSgCkACYNWtesg+2wIckSuDBbz5sXJdKICX7cM15QyepjnEg5ZY5fPgIHT+YVOQ621+BVWcNUuvqEIB/9dX1Fdikca1qXceg8sUCA7ZJQSXlMW/X4MFHNkf19Zw5KaDAyknIshSzdOkSs3JlQ6T7lBYKWXVwXUPXxctaH44fM+ZM06vXoVmrqMc3owIKrGYUvzlOTZrDwoWPVxJI49QhKyyizhEGqajjkvyO+zphwiVJDtF961ABBVYdNkotq/Tcc6vs1DJRA4qDIBXWw+i6awyY5sVgal7+AGr+Puyww8y6desq+9TyeqVshiLpgq9FKF3bcyiwaqtv3ZW+ceNG88ADc216Qh4bsCIhEzhl2Sjj4IMPzlJE6LG4ll26dDFnnfWFmpSvhRangAKrOK3r4kykN9xxx0ybqJl0q7Vr2NDQYKFViymMtYcwaWvX5/4KrPpsl5rVavPmzeaee+5KBSwqtW3bNnPggQdWrV+HDh3s7z169Nxrv/fff9+8+eYbe31faxiOGHG0Oe6442umqxZcjAIKrGJ0rpuzbNmyxcye/Ts7VCbNBnAESO7xfAegBg4cGAgq/1yUw+IXy5c/E1gNfmdW0DwGKGsPYZqWrs9jFFj12S41q9XWrVvNrFm3V6YUTnIiAML86D6ojjhioBk58tgkRTXZ95lnng4F16ZNm0z37t1Tl82B9BCOGzc+ELSZCtaDC1dAgVW45M17QuZk/81vbs3l4cWqGjNmbC5lYVE99tijge7i9u3b7bQwaTftIUyrXP0dp8CqvzapaY3eeedtc+utv4qMQ0VVAljlPfMBi1z89re/sfO+57VpD2FeStZHOQqs+miHwmpBHtQvfzkjUwoBMaGLL/5m7nUGWDfc8DMbt/LzxHbu3GnnlU+zdenS1Zx9tqY0pNGu3o5RYNVbi9S4PuQ7zZgx3QIranaDsKowEPrCCy8yHTpU7y1Meilr164xs2bdYTp16mSnw8lry9pDKKtZb9y4wchn6rZhw0a7sIfo2PS3j75nX5ZDi9Jb0jl69+5tLr98ohk9enReErSYchRYLaYp41/I9ddfa13CqAcoqESZTuaii76aO7Ceeuop8/jjj9oOAZnmOP5VBe/Z2EM41vTq1avJDkEQWrx4sd1Hflu8eFHlGJndVJY0cxdlZWJAd9EOmUdM5hVzZ1WVweYy68Vrr71mSOaVjX0POeQQ8/3vf1+HEgU0qQIr6xNRwuN/9rNpNk6UBlhMR8NxtQDWH/7wkB2YDbBkmuSs8gLYDz7Ybl555ZUKjLCUgASQkUVY6f1EE9554X4S6CdWB5xkxSF3JSEZklTt3f3N3w9ACiSpHPUBrCeddJK9/p///Masl9/ijldgtbgmjb6gm2660bpcaYBFHheLr5599jl7WS3RZ66+xy23zDA7dmy3Dy6T/+URfAewt956q3WBgQ9DiHA5gRJAkvnh3XGSQZ+j4MSVVYOTWFa8M9pg1apVZsmSJRVBqMvw4cNtHpuUNXHiFaZTp85ZZW1RxyuwWlRzxrsYhuaQRhA1ADqotDfffNN07ty5ZsDavXuXPS1xsiypDFJ3wOfCJOnnJPCSsoPgxneMEhBQyT64jXQyHHvssVZX+f6EE04055xzbrwGbUV7KbBaUWPLpd5112xDAmmaAdBiYZ1++r/kPhnetddOsZACMiwugSWUdWMmVR9ScaBVDVS+NRX1t8Bq3rx5TeJVWHtDhw41RxxxhLV22Q/Xk+v+3vf+K+ult8jjFVgtslmrX9SiRY/b//RpgYU7dcYZ/5orsEhpmDbtemttkMIAGA8//PDMrSPzzktBvvWTBV6Naxy2s5n01FfcPvdcuH9Lly61esuGq4vrhwsoQ6Q4FouXHkJGDYwapT2EQY2vwMr8SJSvAIbCPPnkE6kGQPNg1gpY5GAxDQy5YlhYffv2zSQuEKCcsPhTNcsrKqbVr18/C519993Pjp3EKgJOv//9XDsFNZ+fe+45CyvZiJcxF9iIESMqibuch38cgI/YINblueeepzOjhrS8AivTI1HOgzdv3mTuvvuuVLlO5HHx4I0efUKuCzpIDhZukoxZTDtAW1oFywdgyao/1cAVZmkFgYuUEHrzKLdPn75NxlGSEjF+/DgLK9lw89ifOBVgcy0xYMVYSdIc2HANv/rV/8g8EqGcd2Z0rRVY0Rq1uD22bt1ifve7WRY8STeAxUN28smn5AosNwdLLA0C71m2xpSGD5qsWxg3NuUCzD9GBoBT/he/eL459NDeNnfr2mun2sRX2UiNwErEopKAupSF+yepEwIqYAUML7ro37Ncdos+VoHVops3/OIYnuM+iHFlEAAwIR6B97w2ycEipQF3i7ypLL2EPPykNDBwOsx6qgYlua6gmBc9rMCK92HDhpuHHnrISJIp5yV9gmsYNmyYTadwy5CEU2DF95JUyvmAGHN26bxd4XeVAiuvJ65k5fz617+yqQNJN4BFnOWYY0bmCiwsPlxV6tS/f3/DRINZh+fgDgKsOKkJ1aDmg23t2rVmzZo15qWXXqrIB2hxZwcPHmwGDRpUGfco7h+gkimg6WDAUiWe5a66DbBYmbpnz6ZZ+UnbqCXvr8Bqya1b5dqIYTFzQ9KtFsAit4tgNTlYAAaXME2OmH8t9BAChqgAumsBSXqBb32SQ/X666+bF154wb7LRnyqZ8+eZsiQIebQQw+tdGTI8UBXQEVdcB3pVDj11FNtEZyPaxV3kHm7dFMLS+8BT4E//vFhs27d2sTZ7lgtvPKysIDVvHkP2iE5pDHs2LHDvoBAlg1g0KMpwewwK0ssIHmX1ax550WKBdbU008/3cSaAkJYglhUxKd8KwyQkb5AvE9iaW+88YbtPTz55JNtoJ3fGBQtwCKdIctEiFn0KsuxamGVpaVyricxo/XrX0kFLKysI4880ma7Z9kEVvfdN8cmUJKD9dZbb9kHOCuwsK4oHxDhZuLGAi8+8+J3vpPf2E9ytoh9YQURo5JlyrCAxJoCUrhzspCHa6FRd2JYwErGXaLR888/b89H7hWWGB0evHAv+f7AAw+yC70GTT+dReOWdqwCq6W1aMzreeKJZWbFimcTA4uHC9cmK7CYpQA3cP78eeboo4+2YCEHCyuEeE9WYBEDW7ZsmbWQBExYhgBKwMW7vDi/zKAgVhlSUpdu3bqZAQMG2LwrgOJba8BMBlIDKjc2KMH/lStXmmOOOcaeQ2DFO5DkO8o+5ZTTYrZe691NgdVK23716tVm4cLHEseKePiZZpn8I2ZsiLMRt+HFLAn0pjFTAg8wlsrxxzeuZCNBawLZAAJ4pd2AxDPPPGPuvfde646Jmxe3POqCm0dKAmBmuhcJjvs9fqQ4iDvpDyaXHkCuCRcQ0FMXQAUIgRtpDFhln/vcmMxz18e9vjLvp8Aqc+tlqDuJjQzRSRPcxnoJA5YLp0WLFllQLVu21LpTxH0ERlhQBNfFZaOHjX0ADekAWVIakIVUgwULFsRWCEhJXKpx5Z8eTaxP16oi9sS+BNSx4Njc3j45Kd9hPaEX+5NrxjEyVQ0Qwz1EizPO+GzsurbmHRVYrbT1GxpWmKVLl6QGFoAZO/YsCyReixcvtDNwMuQHy4EHFMuEFw8mcJLNz23ChWI/HmSmXDnuuOMyA+vmm2+uzIEV1sSuJUUqAlYdQAnKvSJvivoBK9w415ryYeX+JrGzF1980caxKB/rCv1OOOEEC/ATTzzZvusWrYACK1qjZtsDECxatNAsXAgMNuRaj759+1hLJs0AaALjAOmqq66y4wqBERZJ165drSvlxnmCHn73Oz7zUDN0BYAArE996lOZrpVA+fTp022PnL/hjlFHYlK8qLNrZfoun0wmCGjcILprVQVZWC7EKBOLD2hRDq8TTzzRxrToGR09+sRM19uaDlZg1WlrA6oxY/6tSe34rzxy5MjMNcbtIpZy2WWXpRoALcAiG92dZM+HU9y/AQauEeB64oknzKc//enE1wik1q1bZ11K3mUDyFhHWDDAgXnTJSYVBFP2Byi4pACUFAvXxfM/h1lXEr+iHNzGO++806xYscICEgvytNNOs/ErrFTd4iugwIqvVWF7Yk2NGfO5JlYVVssFF1xgrYIsGw/2lClTbBGTJ09OlU1OTx4PPbEZmSCP8nzLSerp96r5fwMIplWhrPXr15tPfvKTsS+RhM7777/fWi8cT9mUh9VHmeiF9Qcc/PpIPQRSMpc8lpS7Bbl/vlUVBC4ZpkPvJHWbP3++zYJn/ivOyRQy/fr1j32tuqMxCqw6uwuA1SWXfNO6gu52+umnV3KVslQZC2T27Nm2iEmTJqUaAC2T+JHxXW1GzzALywcHbqUsSU/uVNxpZcgHu+222yoDnIlBCaQAapCrJ2AljgTYZEyfQCqop8+HU5CV5QLL/8z1UVfqI6/+/Q/TMYMpbmQFVgrRannI5MnXmClTJjc5BfGdL3yhcV09HsgsG8FocZl++MMfpgr2yjTJZGmLVRNmvbiWl2+FCQiIKUkaA3GnOCkNAODuu++2ri1TthAPwt2iVy7I1eNcQErWNiSWJQOjXSCFfQ7rBQyzrKQccQ1lCA7AAmCf/WxTdz9Lm7amYxVYGVvbDYz7RbFm3Udbm73O5P4etm4driCwEpcmC7AAFcCS7Qc/+EHFskkig1hYXLt064dBIup7HmCsK+JzskXNgwWs7rnnHmutMDwGWIk1JQmgAgxcL+kEIJ4kYwvDAORbT751FdY76M664ELKBxawGjnyOOtS65ZcAQVWcs3sETyst98+s4k1RAxEuvJdd0RmHRB3gIdIXrKcFQ9+UN4QriDJi7JlAZZrXVHe1772tSZlx5VCgEW8KWj6ljCrSsr3e+IY5oJ2kiFeLQdLLCs0BVbMNeVqLYCgM4AyqR9WWJir5wOqGsjC3D7fmpK/ZYyga10NHnykGTRocFypdT9PAQVWilsCWH33u/9p/vSnRypH42owxIScIx4WGWfmF8/D6mdNsw/d3ps2bUpRm/SHnHvuuTYXKOkm0yQDLAAiM3r6oHL/FpC4AXd+ByousCS2FFQnF1YErhmX555Dcpz8zPZqsKqWQxXVA+iDygeaDyxgNXDgoKRy6/6OAgqshLcDsLr00m/ZRQWIvTB4FUAxeJcYCg8k8RGJlfgPqP+3nB63hXQBXJaiNh54AOs/0FHnl2mSJYWAuJEE3ynLBZhYlS6kpVcOLYAV9Yhai9CFFT1t5JC5biCfgZ/baxnWuyegCXqv9luQ2xcEraC4FSMDmOxPt2wKKLBi6geo5s693w7Y5b87wylefvllOyZOuqkpCreGB5GHhxtXgtJ8lsG1MvZM3vmehxZ3UpY3j1mtTLtx3jQLqgqw7rvvPrN8+fImVk5UhXwrZOzYsTYviY3ZEWSqFrccgRXWF+7xUUcd1cQNBHb8gwjq6QuDlv991N8+mKJA5bqBvXv3MUOHDouSRn+PoYACK4ZIU6dONayZR34QICJwykMi3e/ESXioAADr/ZGnJCP+3fmVBFAyIFfcGb7/zGc+Y5NCywAsmSZ57ty5FWDFkDFwl/Hjx1fyrijXX4tQAuyAFVgxUZ4LF9pB4l9hrl81aIXFrOLEq4KgJW6gvAOrIUOGppVHj/MUUGDFuCVmzJhuExrpqSMhkf/kvEgIJFjOC2gRg8JFZApcfkuyEU9iVRW50ZMcm3ZfrD8e+KQDoGXWUZaweuSRj+J4aepx3nnn2V4+NsboyQIP/C2wwrJiZgcfVpJH5U/1nCQu5UJHPoe9u65eFKzQ9PDDjzCHHZYt0TeNpi35GAVWROviCl555RWG3joecB4qXgIsgRZDOHjAHn74YQuwsFhV2Omwri688EJrYSU9Nu0NKlBNAywC70wXnBVY9PRx7WTgEwdkiA4bs3wyrhBY8T1xK9dSQif+gbhZ6XF7+EQvPyblgyrMynLBFRSvQs8BAw43JIfqlq8CCqwqesoQGRIlzzzzTBs7IV9IZqzkgeeBAVAyte+zzz7bZHGCJM01bdq0ylCZIqAlk8clHQDNdc+cOdMCK8+NwdSkNACrxYsX284Lel4ZXhMEK3fWhCC3r9p3QVZY2Hc+uIKAJZ0LdMCwiIQOucnzzvioLAVWiK7AavjwoU16vHiYWDyA2QSwtnzXUKysOXPmpGqtyy+/vNJrVwSwiLNxDWEpGGEXAbAIuDO/U14bruCPf/xjw8SCQF9g5S9XDxj4pwGsXIvId+1cK6qa5VTNJQwCFfu76QpucB1YjRhxjI2p6VYbBRRYAboCq2HDhjRxzYiXEENhvTksLdIQwmJZaa2s888/3y5QwENQBLC4dGJvSZfTAtYMi8kTWMyiwD+DhoYGC6tRo0btNQxJZiUVWAUBy4dTEMjiBNR9dzHKDQRWw4aNUFjVhlOVUhVYnsCzZ99pvvGNrzf51oUVPXwE3ukxFAvFDcBjZRHfIZbl5iPFacfmiGMRd4saCuPXHWBxfVnjVwITXFLGS/LQ849g9OjR9m93Yx/SPtw5qYJ6BeME3IMy44MsrTBIiVXFO3Xu3r2HnYFVt9oroMByNGYxzwkTLt4LVsCJBEdJUSBmxYNFMJibn/whHnx6CRmvR36WjLFL2oRFx7EAbFKXkGuaN29eamD5gWosKlxCIIWF6S9AIZYV/yDixKqiYlfVgukuuKpZVQKrvn37mS5duiZtZt0/pQIKrA+Fu+66qebqq6+OBSvyrIATrgnWiVhYbpZ1yvawcRwmmyvKLUzjEsYBVrUeO9dtw3IiJkXyLZaVPyhYVkwWazWOBRU3oO7DKQpWbo5Vt27dDTlWwFa34hRQYBljpk6dYq65ZlIkrAg2AysZQuPGUvJqsi996UvmpJNOKgxYSSwsWaOPPDOG5bgxrCBAuZrIIG8y0nGpmUJGppUhfhW0Hh/Ba3fivaSw8i0tPy7lglPcvDBoCawaZy/tbnr1aky/0K1YBVo9sK6//jrzk5/8716q85+emBL/2WXYBzNskuLA0BR/Vsq8mo3kUbK/a5mPBXBk43p4GAVGvLtgYj/3u7DrpAyZr1xGA5C1DnCwoIAToML1i+pF49rZT8ZjumBxgSJ1CXLx/P2qpSxUS1twrSrGivbq1Vutqrxu9hTltHpgnX/+ebED5LLseLUePHc2hhTtYQ/hQaeXLGzzz8E6gX4A2oWSfHa/q1Y3N6gs0+AAGXc9PYDCC8uIF2Ai7QPIVJtxodp5AR5BbF5RcaggiPkWU5JYlQs4P22BayJORX6Vbs2rQKsH1h133G5Wrmywrh4WlKQqEESXpctxBbG0iFHx7g9ibt4m/GhNPOohPWDysBKwlqA6IOF3HkCZigU48LfMMAGYAI/MJ8XfHMeLcnwwprl2yqA8YChlUy/OG5S57oMo6d9R1lVYcJ1rV1ClaeHaHdPqgTVv3oNmzZqX7cPjD1FxBynL+nICLWDGZ/lest9l0LMM4eFhkFiXgI7mdKfy9Xu/sKDEsmFf97OM/ZN3AQ/7iWXDb+KeSexIyhB45QGearelTCHDPsCPawJIaEo90S3IigqCUbXvwuJaSayrIGC1bbu/zVYPiq3V7nHUkqMUaPXAYtn0e++9uwKsWj/IUQ1Sz7+LqyhT0sg7AOI3/gZIwArrJGq6lzC3Lg60wlzGqB7CavEqfqPenTsfYnr06FnPTdFq69bqgUXLk0e1fv0r1tKSyejEMsIyECvKn8mybHcN1yTT12BpSWBf3EauXSxNcR+5fteq42+Z88u9fsr2Y2th8K8Wn5IywyynLO5gNVg1LrCqoKr3e1qB5bQQvWENDc/ab/wsdR5aARZuFg+tzBXuunoCOHH7ZOlzdzksmRcrrCfQffB5yDjWdVfDZvGU76mX/5l6yKyeUv84N2eWIUJBwApzA6OsrSjIhbmAPuDE/ZPv0aJTp87Wokqa8R9HP90nXwUUWJ6eBNiffHKZ/TbsYc2jJ1DK8N+lOtXOEQciAq2g2yXO8f5xaY7xgRX1dxxXMMoCqxbT8mGFVdWnT78mc3Dl+3hpaXkroMAKUBRorVrVYCfhE2sozL3JA155NKpfDxeEScp3y/EhJW5ftfKqxQCjLK4oKysMVnJctbiWCzJAhVVFAqhu5VJAgRXSXsCKmNa2be8lHsQc9xZorgB/EGTTWFBFgCvMKovjIvrWloIq7p1Zv/spsCLaBk9Vgg8AAANGSURBVGht2fKWtbTc9e2iLCt5WKL2i7o1mgtqUfVKe11J3ELfogqywPxgf5BLSGxKLaqoFi3H7wqsGO0EsNatW1sJuocdkhdc0pSTFyBjyJF4Fx8qbgFJ3cQwtzHI4sKi6tixk7p+iVusfg9QYMVsG3KKnn9+tdm1qzHrPc4WBp40QAqyNuLUQR5wcfn8OFSWuiQ5f1L3McoSCwKUXCsWFaDipT1/cVupHPspsBK2E5bW1q1bKtZW0iCzb124IOE3P6UhYfXs7i6U8gBSHmX41xHHsgqDdBjMgFP79h1M167dFFRpbpwSHKPAStFI77+/zbzwwvN7uYhRD3ac3+PEhqLK8d2muJcYp9xq7nBYr2KccuOCP2i//fZrnABQQRW3pcu7nwIrZdvhIq5fv85s27Yt1NqKelDT/l4tJhR0OVHn8a2+uJIkKTepSxhlkXHuxsn9OqrrF7fBWsB+CqyMjfjGG68bXjLoOQkw4loVUQ9v0t+jLLA4IIqzT1ppq5VNIL1du/Z2ji3edWtdCiiwcmjv3bt32elp6E0MCshHPdxRAeakQEoKwqj6RQEurYRxzosVBZhw+eRz2vPpceVXQIGVcxvKDAVBM5ICNn/z9xN3L2j6Zf+7Nm3MhzMitDF8lq3a1M1hkIiCR9rj4srbODVO47xbwInP7rL1ccvR/Vq2Agqslt2+DsQElg7ZjDFBEI0DS7G6/H39v/20Apmwj+OBEpuCqZXchDlcpgIrBxG1CFVAFShGAQVWMTrrWVQBVSAHBRRYOYioRagCqkAxCiiwitFZz6IKqAI5KKDAykFELUIVUAWKUUCBVYzOehZVQBXIQQEFVg4iahGqgCpQjAIKrGJ01rOoAqpADgoosHIQUYtQBVSBYhRQYBWjs55FFVAFclBAgZWDiFqEKqAKFKOAAqsYnfUsqoAqkIMCCqwcRNQiVAFVoBgFFFjF6KxnUQVUgRwUUGDlIKIWoQqoAsUooMAqRmc9iyqgCuSggAIrBxG1CFVAFShGAQVWMTrrWVQBVSAHBRRYOYioRagCqkAxCiiwitFZz6IKqAI5KKDAykFELUIVUAWKUUCBVYzOehZVQBXIQQEFVg4iahGqgCpQjAL/D9TuVgPi52SeAAAAAElFTkSuQmCC
;file_total_lines: 48046
;estimated_time(s): 1682.0400000000002
;nozzle_temperature(°C): 205
;build_plate_temperature(°C): 70
;work_speed(mm/minute): 2400
;max_x(mm): 15.000249862670898
;max_y(mm): 7.750999927520752
;max_z(mm): 24
;min_x(mm): -15.000249862670898
;min_y(mm): -7.750999927520752
;min_z(mm): 0

;Header End

; G-code for 3dp engraving
; Generated by Snapmaker Luban 4.0.3
; Sat Dec 25 2021 15:19:20

M82 ;absolute extrusion mode
;Start GCode begin
M104 S205
M140 S70
G28 ;home
G90 ;absolute positioning
G1 X-10 Y-10 F3000
G1 Z0 F1800
M109 S205;Wait for Hotend Temperature
M190 S70;Wait for Bed Temperature
G92 E0
G1 E20 F200
G92 E0
;Start GCode end
G92 E0
G1 F1500 E-6.5
;LAYER_COUNT:160
;LAYER:0
M107
;MESH:/home/jamesh/.config/snapmaker-luban/Tmp/16817107_19078033.stl
G0 F1800 X51.246 Y62.04 Z0.3
;TYPE:WALL-INNER
G1 F1500 E0
G1 F1080 X51.244 Y62.04 E0.0001
G1 X51.278 Y62.06 E0.00108
G1 X51.507 Y62.196 E0.01437
G1 X51.757 Y62.286 E0.02763
G1 X51.816 Y62.291 E0.03058
G1 X51.944 Y62.303 E0.03699
G1 X52.148 Y62.28 E0.04724
G1 X52.394 Y62.168 E0.06072
G1 X52.537 Y62.032 E0.07057
G1 X52.552 Y62.042 E0.07147
G1 X52.734 Y62.106 E0.08109
G1 X52.956 Y62.125 E0.09221
G1 X53.041 Y62.115 E0.09648
G1 X53.045 Y63.037 E0.14248
G1 X53.045 Y63.073 E0.14427
G1 X53.047 Y63.339 E0.15754
G1 X53.048 Y63.485 E0.16483
G1 X53.038 Y63.624 E0.17178
G1 X53.026 Y63.766 E0.17889
G1 X53.028 Y63.785 E0.17984
G1 X53.057 Y64.006 E0.19096
G1 X53.059 Y64.011 E0.19123
G1 X53.186 Y64.256 E0.205
G1 X53.393 Y64.434 E0.21862
G1 X53.578 Y64.512 E0.22864
G1 X53.74 Y64.549 E0.23693
G1 X53.921 Y64.558 E0.24597
G1 X54.149 Y64.517 E0.25753
G1 X54.326 Y64.43 E0.26736
G1 X54.479 Y64.305 E0.27722
G1 X54.623 Y64.104 E0.28956
G1 X54.669 Y63.966 E0.29681
G1 X54.697 Y63.882 E0.30123
G1 X54.712 Y63.773 E0.30672
G1 X54.721 Y63.716 E0.3096
G1 X54.721 Y63.503 E0.32023
G1 X54.72 Y63.288 E0.33095
G1 X54.72 Y63.137 E0.33849
G1 X54.716 Y62.103 E0.39007
G1 X54.98 Y62.081 E0.40329
G1 X54.99 Y62.081 E0.40379
G1 X55.137 Y62.04 E0.4114
G1 X55.162 Y62.033 E0.4127
G1 X55.252 Y61.985 E0.41779
G1 X55.275 Y61.973 E0.41908
G1 X55.393 Y62.064 E0.42652
G1 X55.384 Y62.096 E0.42654
G1 X55.358 Y62.186 E0.42907
G1 X55.357 Y62.195 E0.42952
G1 X55.339 Y62.346 E0.43688
G1 X55.34 Y62.372 E0.43818
G1 X55.351 Y62.555 E0.44733
G1 X55.468 Y62.829 E0.46219
G1 X55.36 Y62.885 E0.46826
G1 X55.167 Y63.051 E0.48096
G1 X55.115 Y63.152 E0.48663
G1 X55.046 Y63.286 E0.49347
G1 X54.996 Y63.502 E0.50183
G1 X55.011 Y63.691 E0.50835
G1 X55.022 Y63.818 E0.51324
G1 X55.057 Y63.899 E0.51764
G1 X55.14 Y64.088 E0.52794
G1 X55.261 Y64.241 E0.53767
G1 X55.386 Y64.351 E0.54598
G1 X55.512 Y64.434 E0.55351
G1 X55.65 Y64.502 E0.56118
G1 X55.813 Y64.559 E0.5698
G1 X56.092 Y64.615 E0.58399
G1 X56.272 Y64.628 E0.593
G1 X56.461 Y64.628 E0.60243
G1 X56.779 Y64.589 E0.61841
G1 X57.065 Y64.495 E0.63343
G1 X57.242 Y64.402 E0.64341
G1 X57.475 Y64.223 E0.65807
G1 X57.531 Y64.163 E0.66216
G1 X57.566 Y64.126 E0.6647
G1 X57.584 Y64.156
G1 X57.662 Y64.284 E0.66891
G1 X57.822 Y64.433 E0.67982
G1 X58.044 Y64.534 E0.69199
G1 X58.243 Y64.562 E0.70201
G1 X58.58 Y64.536 E0.71888
G1 X58.938 Y64.542 E0.73674
G1 X59.312 Y64.518 E0.75544
G1 X59.503 Y64.488 E0.76508
G1 X59.788 Y64.406 E0.77988
G1 X59.983 Y64.312 E0.79068
G1 X60.055 Y64.413 E0.79687
G1 X60.255 Y64.587 E0.81009
G1 X60.431 Y64.686 E0.82017
G1 X60.618 Y64.753 E0.83008
G1 X60.812 Y64.781 E0.83986
G1 X61.008 Y64.778 E0.84964
G1 X61.198 Y64.737 E0.85933
G1 X61.375 Y64.669 E0.86879
G1 X61.544 Y64.566 E0.87867
G1 X61.594 Y64.521 E0.88202
G1 X61.765 Y64.602 E0.89146
G1 X61.973 Y64.648 E0.90209
G1 X62.258 Y64.617 E0.91639
G1 X62.489 Y64.487 E0.92962
G1 X62.546 Y64.431 E0.9336
G1 X62.566 Y64.455 E0.93516
G1 X62.751 Y64.576 E0.94619
